projects/prioritab/prioritab_logo.svg

<svg xmlns="http://www.w3.org/2000/svg" viewBox="0 0 30.4 15"><style>path{fill:#FFF;}</style><path d="M30.3 14.1L24.1.9c-.3-.5-.8-.9-1.4-.9H.7C.5 0 .4 0 .3.1 0 .3-.1.6.1.9l6.2 13.2c.3.5.8.9 1.4.9h22c.1 0 .3 0 .4-.1.3-.2.4-.5.2-.8zm-11.2-1.6c0 .2-.1.3-.1.4 0 .1-.1.1-.2.1s-.2 0-.3-.1l-3.2-1.7-3.2 1.7c-.1.1-.2.1-.3.1-.1 0-.1 0-.2-.1s-.1-.2-.1-.3v-.1l.6-3.5-2.6-2.5c-.1 0-.2-.2-.2-.3 0-.1.1-.2.4-.3l3.4-.5 1.6-3.2c.1-.2.3-.3.4-.3.2 0 .3.1.4.3l1.6 3.2 3.5.5c.3 0 .4.1.4.3s0 .3.1.3L18.5 9l.6 3.5z"/></svg>

<?xml version="1.0" encoding="utf-8"?>
<!-- Generator: Adobe Illustrator 21.1.0, SVG Export Plug-In . SVG Version: 6.00 Build 0)  -->
<svg version="1.1" id="Layer_1" xmlns="http://www.w3.org/2000/svg" xmlns:xlink="http://www.w3.org/1999/xlink" x="0px" y="0px"
	 viewBox="0 0 30.4 15" style="enable-background:new 0 0 30.4 15;" xml:space="preserve">
<style type="text/css">
	.st0{fill:#FFFFFF;}
</style>
<title>Artboard 1</title>
<path class="st0" d="M30.3,14.1L24.1,0.9C23.8,0.4,23.3,0,22.7,0h-22C0.5,0,0.4,0,0.3,0.1C0,0.3-0.1,0.6,0.1,0.9l6.2,13.2
	C6.6,14.6,7.1,15,7.7,15h22c0.1,0,0.3,0,0.4-0.1C30.4,14.7,30.5,14.4,30.3,14.1z M19.1,12.5L19.1,12.5c0,0.2-0.1,0.3-0.1,0.4
	c0,0.1-0.1,0.1-0.2,0.1s-0.2,0-0.3-0.1l-3.2-1.7l-3.2,1.7C12,13,11.9,13,11.8,13c-0.1,0-0.1,0-0.2-0.1c-0.1-0.1-0.1-0.2-0.1-0.3
	v-0.1L12.1,9L9.5,6.5c-0.1,0-0.2-0.2-0.2-0.3c0-0.1,0.1-0.2,0.4-0.3l3.4-0.5l1.6-3.2C14.8,2,15,1.9,15.1,1.9c0.2,0,0.3,0.1,0.4,0.3
	l1.6,3.2l3.5,0.5C20.9,5.9,21,6,21,6.2s0,0.3,0.1,0.3L18.5,9L19.1,12.5z"/>
</svg>
